!!!COM: Palestrina, Giovanni Perluigi da
!!!OPR: Missa Confitebor tibi
!!!OMD: Credo
!!!OTL: Genitum
**kern	**kern	**kern	**kern	**kern	**kern	**kern	**kern
*Ibass	*Itenor	*Icalto	*Icant	*Ibass	*Itenor	*Icalto	*Icant
!Bassus	!Tenor	!Altus	!Cantus	!Bassus	!Tenor	!Altus	!Cantus
*clefF4	*clefGv2	*clefG2	*clefG2	*clefF4	*clefGv2	*clefG2	*clefG2
*k[b-]	*k[b-]	*k[b-]	*k[b-]	*k[b-]	*k[b-]	*k[b-]	*k[b-]
*G:dor	*G:dor	*G:dor	*G:dor	*G:dor	*G:dor	*G:dor	*G:dor
*M4/2	*M4/2	*M4/2	*M4/2	*M4/2	*M4/2	*M4/2	*M4/2
=41	=41	=41	=41	=41	=41	=41	=41
2.A	2r	2.a	2.ee	1A	1e	1a	1cc#
.	2.a	.	.	.	.	.	.
4A	.	4a	4ee	.	.	.	.
2d	.	2f	2ff	1r	1r	1r	1r
.	4a	.	.	.	.	.	.
2d	2f	2a	2ff	.	.	.	.
=42	=42	=42	=42	=42	=42	=42	=42
2c	2g	2cc	2ee	0r	0r	0r	0r
4G	1g	1b-	4dd	.	.	.	.
4A	.	.	4cc	.	.	.	.
4B-	.	.	4dd	.	.	.	.
4c	.	.	4ee	.	.	.	.
[2d	4f	4a	[2ff	.	.	.	.
.	4e	4g	.	.	.	.	.
=43	=43	=43	=43	=43	=43	=43	=43
4d]	1d	2.f	4ff]	1r	1r	1r	1r
4c	.	.	4ee	.	.	.	.
2B-	.	.	1dd	.	.	.	.
.	.	4g	.	.	.	.	.
1A	1e	[1a	.	2.A	2r	2.a	2.ee
.	.	.	2cc#	.	[2a	.	.
.	.	.	.	4A	.	4a	4ee
=44	=44	=44	=44	=44	=44	=44	=44
1D	1d	1a]	1dd	2d	4a]	2f	2ff
.	.	.	.	.	4a	.	.
.	.	.	.	2d	2f	2a	2ff
1r	1r	1r	1r	2c	2g	2cc	2ee
.	.	.	.	4G	[2g	[2b-	4dd
.	.	.	.	4A	.	.	4cc
=45	=45	=45	=45	=45	=45	=45	=45
0r	0r	0r	0r	4B-	2g]	2b-]	4dd
.	.	.	.	4c	.	.	4ee
.	.	.	.	2.d	4f	4a	2.ff
.	.	.	.	.	4e	4g	.
.	.	.	.	.	2d	1f	.
.	.	.	.	4c	.	.	4ee
.	.	.	.	2B-	2d	.	2dd
=46	=46	=46	=46	=46	=46	=46	=46
2r	1a	2r	2r	1A	1e	1a	1cc#
2A	.	2a	2ee	.	.	.	.
2d	2f	2a	2ff	1D	1d	1a	1dd
[2d	[2f	[2a	[2dd	.	.	.	.
=47	=47	=47	=47	=47	=47	=47	=47
4d]	4f]	4a]	4dd]	1r	1r	1r	1r
4d	4f	4a	4dd	.	.	.	.
2G	2g	2b-	2dd	.	.	.	.
2d	2g	2a	2dd	1D	2r	2r	2r
2d	2f#	2a	2dd	.	2d	2d	2a
=48	=48	=48	=48	=48	=48	=48	=48
2.G	1g	[0g	1dd	2G	2B-	2d	2b-
.	.	.	.	2.G	2B-	2.g	2.dd
4A	.	.	.	.	.	.	.
2B	2r	.	2r	.	2G	.	.
.	.	.	.	4G	.	4g	4dd
2c	[2g	.	[2gg	2C	2e-	2g	2cc
=49	=49	=49	=49	=49	=49	=49	=49
1G	2g]	1g_	2gg]	2G	2d	2g	2cc
.	2d	.	2gg	2G	2d	2g	2b
1c	4e	1g_	[1ee	1C	1c	1g	1cc
.	4d	.	.	.	.	.	.
.	4e	.	.	.	.	.	.
.	4f	.	.	.	.	.	.
=50	=50	=50	=50	=50	=50	=50	=50
0C	4g	0g]	0ee]	2r	2r	2r	2r
.	4f	.	.	.	.	.	.
.	4e	.	.	2c	2e	2g	2cc
.	4d	.	.	.	.	.	.
.	1c	.	.	2c	2e	2g	2cc
.	.	.	.	2c	2e	2g	2cc
=51	=51	=51	=51	=51	=51	=51	=51
0r	0r	0r	0r	1c	1e	1g	1cc
.	.	.	.	2G	2d	2g	2b
.	.	.	.	2c	2e	2g	2cc
=52	=52	=52	=52	=52	=52	=52	=52
2r	2r	2r	2r	[0F	[0f	4a	2.cc
.	.	.	.	.	.	4g	.
2F	2c	2a	2ff	.	.	4a	.
.	.	.	.	.	.	4b-	4b-
2F	2c	2a	2ff	.	.	4cc	4a
.	.	.	.	.	.	4b-	4g
2F	2c	2a	2ff	.	.	4a	4a
.	.	.	.	.	.	4g	4b-
=53	=53	=53	=53	=53	=53	=53	=53
1F	1c	1a	1ff	1F]	1f]	1a	1cc
2C	2c	2g	2ee	1r	1r	1r	1r
2F	2c	2a	2ff	.	.	.	.
=54	=54	=54	=54	=54	=54	=54	=54
0BB-	0B-	0f	0dd	1r	2r	2r	1r
.	.	.	.	.	2B-	2d	.
.	.	.	.	2r	1d	1f	2r
.	.	.	.	2B-	.	.	2dd
=55	=55	=55	=55	=55	=55	=55	=55
0BB-	0B-	0f	0dd	1d	4B-	2d	1ff
.	.	.	.	.	4c	.	.
.	.	.	.	.	4d	4B-	.
.	.	.	.	.	4e	4c	.
.	.	.	.	[1B-	2.f	4d	2dd
.	.	.	.	.	.	4e	.
.	.	.	.	.	.	[2f	4b-
.	.	.	.	.	4e	.	4cc
=56	=56	=56	=56	=56	=56	=56	=56
0r	0r	0r	0r	2B-]	2d	4f]	4dd
.	.	.	.	.	.	4g	4ee
.	.	.	.	4A	4c	4a	1ff
.	.	.	.	4G	4B-	4b-	.
.	.	.	.	4F	2A	[1cc	.
.	.	.	.	4G	.	.	.
.	.	.	.	4A	[2a	.	4ee
.	.	.	.	4B-	.	.	4dd
=57	=57	=57	=57	=57	=57	=57	=57
1r	0r	0r	1r	2c	2a]	1cc]	1ee
.	.	.	.	2c	1g	.	.
1D	.	.	2r	1d	.	1a	1dd
.	.	.	2a	.	2f#	.	.
=58	=58	=58	=58	=58	=58	=58	=58
1B-	1G	2r	1dd	0G	1g	0g	2dd
.	.	1g	.	.	.	.	2b-
[1G	2.B-	.	2b-	.	1d	.	1dd
.	.	[2b-	4g	.	.	.	.
.	4A	.	4a	.	.	.	.
=59	=59	=59	=59	=59	=59	=59	=59
2G]	2G	2b-]	4b-	2r	2d	2r	0dd
.	.	.	4cc	.	.	.	.
2F#	2A	2a	2dd	2D	2A	2a	.
1G	2r	1g	1b-	4G	2B-	2d	.
.	.	.	.	4A	.	.	.
.	2d	.	.	4B-	[2d	2g	.
.	.	.	.	4c	.	.	.
=60	=60	=60	=60	=60	=60	=60	=60
2D	1f	1a	2a	1d	4d]	2f	2r
.	.	.	.	.	4e	.	.
2D	.	.	4f	.	2.f	2d	2dd
.	.	.	4g	.	.	.	.
2D	2d	1f	4a	2d	.	1a	1ff
.	.	.	4b-	.	4g	.	.
2F	2c	.	[2a	2A	2a	.	.
=61	=61	=61	=61	=61	=61	=61	=61
1G	1B-	2r	4a]	2.B-	[0d	2r	2dd
.	.	.	4g	.	.	.	.
.	.	2d	1g	.	.	2g	2dd
.	.	.	.	4G	.	.	.
1D	1A	1d	.	1d	.	1a	1dd
.	.	.	2f#	.	.	.	.
=62	=62	=62	=62	=62	=62	=62	=62
0G	0G	0d	0g	1G	1d]	1b	1dd
.	.	.	.	2r	2r	2r	2r
.	.	.	.	2G	2g	2b-	[2dd
=63	=63	=63	=63	=63	=63	=63	=63
0r	0r	0r	0r	1.d	2.f	2.a	2dd]
.	.	.	.	.	.	.	1ff
.	.	.	.	.	4e	4g	.
.	.	.	.	.	2d	2f	.
.	.	.	.	2c	2e	2g	2ee
=64	=64	=64	=64	=64	=64	=64	=64
0r	0r	0r	0r	2B-	2f	1b-	2dd
.	.	.	.	2G	2g	.	2dd
.	.	.	.	1A	1e	1a	4cc
.	.	.	.	.	.	.	4b-
.	.	.	.	.	.	.	4a
.	.	.	.	.	.	.	4g
=65	=65	=65	=65	=65	=65	=65	=65
1D	2r	2r	1a	1d	1d	1a	1f#
.	2d	2f#	.	.	.	.	.
[1G	2.d	[1g	[1b-	1r	1r	1r	1r
.	4c	.	.	.	.	.	.
=66	=66	=66	=66	=66	=66	=66	=66
2G]	2B-	2g]	2b-]	0r	0r	0r	0r
2F	2c	2a	2a	.	.	.	.
1E-	1e-	1b-	1g	.	.	.	.
=67	=67	=67	=67	=67	=67	=67	=67
1C	1e-	2a	1cc	0r	0r	0r	0r
.	.	1g	.	.	.	.	.
[1D	[1d	.	2b-	.	.	.	.
.	.	4f#	4a	.	.	.	.
.	.	4e	4g	.	.	.	.
=68	=68	=68	=68	=68	=68	=68	=68
1D]	1d]	1f#	1a	1.d	2r	1.a	2r
.	.	.	.	.	1f#	.	1dd
1r	1r	1r	1r	.	.	.	.
.	.	.	.	2d	2f#	2a	2dd
=69	=69	=69	=69	=69	=69	=69	=69
2r	2r	2r	2r	1G	1g	1g	1b
1G	1B	1g	1dd	.	.	.	.
.	.	.	.	1G	2d	1g	1dd
2G	2B	2g	2dd	.	4g	.	.
.	.	.	.	.	4f	.	.
=70	=70	=70	=70	=70	=70	=70	=70
1C	1c	1g	1ee	1.c	4e	1g	1.cc
.	.	.	.	.	4d	.	.
.	.	.	.	.	4e	.	.
.	.	.	.	.	4f	.	.
1C	1c	1g	1ee	.	2g	1e	.
.	.	.	.	2c	2g	.	2cc
=71	=71	=71	=71	=71	=71	=71	=71
1.F	1c	1a	1.ff	0F	[0f	0a	0cc
.	1A	1cc	.	.	.	.	.
2F	.	.	2ff	.	.	.	.
=72	=72	=72	=72	=72	=72	=72	=72
0BB-	1B-	1b-	0ff	0B-	1f]	0d	0dd
.	1d	[1b-	.	.	2r	.	.
.	.	.	.	.	2B-	.	.
=73	=73	=73	=73	=73	=73	=73	=73
0E-	1e-	1b-]	0gg	0G	1.B-	0g	1b-
.	1B-	[1g	.	.	.	.	1b-
.	.	.	.	.	2G	.	.
=74	=74	=74	=74	=74	=74	=74	=74
1C	0c	2g]	0ee-	0c	2.e-	1g	2r
.	.	2c	.	.	.	.	2.cc
.	.	.	.	.	4d	.	.
1C	.	[1g	.	.	1c	2r	.
.	.	.	.	.	.	.	4b-
.	.	.	.	.	.	[2g	4g
.	.	.	.	.	.	.	4a
=75	=75	=75	=75	=75	=75	=75	=75
0G	0B-	0g]	1dd	0G	[0d	2g]	4b-
.	.	.	.	.	.	.	4cc
.	.	.	.	.	.	2.b-	2dd
.	.	.	[1dd	.	.	.	2.b-
.	.	.	.	.	.	4a	.
.	.	.	.	.	.	[2g	.
.	.	.	.	.	.	.	4cc
=76	=76	=76	=76	=76	=76	=76	=76
0D	0A	1a	1dd]	0d	0d]	2g]	0dd
.	.	.	.	.	.	4f#	.
.	.	.	.	.	.	4e	.
.	.	1d	1a	.	.	1f#	.
=77	=77	=77	=77	=77	=77	=77	=77
0G	0G	0d	0b	0G	0B	0g	0dd
*-	*-	*-	*-	*-	*-	*-	*-
!!!CDT: 1525/^1526/-1594/2/2
!!!OCY: Italia
!!!AGN: Mass (Parody)
!!!AST: renaissance, vocal
!!!ASW: Motet 1572 (Palestrina)
!!!PWK: Masses, Book 8vce
!!!RNB: Cadence finals: D,Bb
!!!YOR: Le Opere Complete, v. 30, p. 163
!!!YOO: Rome, Italy: Fratelli Scalera
!!!END: 1992//
!!!EED: John Miller
!!!YEC: Copyright 2000, John Miller
!!!YEN: United States of America
!!!YEM: Rights to all derivative electronic formats reserved.
!!!YEM: Refer to licensing agreement for further details.
!!!YEM: This file must be accompanied by the licensing agreement.
!!!YEM: A copy of the licensing agreement may be found at http://www.music-cog.ohio-state.edu/HumdrumDatabases/Palestrina/license.txt
!!!EMD: converted to Humdrum by Bret Aarden
